src/icons/ce-optimization.svg

<svg width="41" height="30" viewBox="0 0 41 30" fill="none" xmlns="http://www.w3.org/2000/svg">
<g opacity="0.3">
<path d="M31.2169 12.9004L27.4453 12.4338C27.2002 11.5984 26.8431 10.8066 26.3896 10.072L28.7018 7.26657C28.8462 7.0912 28.8286 6.84357 28.6605 6.68759L25.974 4.19497C25.8054 4.03855 25.539 4.02137 25.35 4.15664L22.3263 6.30204C21.5347 5.88125 20.6813 5.54989 19.7809 5.32253L19.278 1.82309C19.2462 1.60366 19.0448 1.44019 18.8069 1.44019H15.0077C14.7698 1.44019 14.5685 1.60366 14.5371 1.82265L14.0342 5.32209C13.1338 5.54945 12.2804 5.8808 11.4888 6.3016L8.46509 4.1562C8.27608 4.02137 8.00919 4.03811 7.84108 4.19453L5.15459 6.68715C4.98648 6.84313 4.96844 7.09076 5.11328 7.26613L7.42555 10.0716C6.97202 10.8061 6.6149 11.5979 6.36985 12.4333L2.59823 12.9C2.36173 12.9295 2.18555 13.1163 2.18555 13.3371V16.8621C2.18555 17.0828 2.36173 17.2696 2.59776 17.2987L6.36938 17.7653C6.61442 18.6008 6.97155 19.3926 7.42507 20.1271L5.1128 22.9326C4.96844 23.1079 4.98601 23.3556 5.15412 23.5115L7.84061 26.0041C7.93273 26.0896 8.05431 26.1333 8.17683 26.1333C8.27798 26.1333 8.37961 26.1037 8.46509 26.0425L11.4888 23.8971C12.2804 24.3179 13.1338 24.6492 14.0342 24.8766L14.5371 28.376C14.5685 28.5955 14.7698 28.7589 15.0077 28.7589H18.8069C19.0448 28.7589 19.2462 28.5955 19.2775 28.3765L19.7804 24.877C20.6808 24.6497 21.5342 24.3183 22.3259 23.8975L25.3495 26.0429C25.435 26.1042 25.5366 26.1337 25.6378 26.1337C25.7603 26.1337 25.8819 26.0901 25.974 26.0046L28.6605 23.512C28.8286 23.356 28.8467 23.1084 28.7018 22.933L26.3896 20.1275C26.8431 19.393 27.2002 18.6012 27.4453 17.7658L31.2169 17.2992C31.4529 17.2696 31.6291 17.0828 31.6291 16.8621V13.3371C31.6291 13.1163 31.4529 12.9295 31.2169 12.9004ZM16.9073 19.0652C14.5466 19.0652 12.6333 17.2899 12.6333 15.0996C12.6333 12.9092 14.5466 11.1339 16.9073 11.1339C19.268 11.1339 21.1814 12.9092 21.1814 15.0996C21.1814 17.2899 19.268 19.0652 16.9073 19.0652Z" fill="#0278D5"/>
</g>
<path d="M1.71094 20.1357L7.13832 25.1714L15.8221 17.1143L20.164 21.1429L39.7026 1" stroke="#0278D5" stroke-width="2" stroke-linecap="round"/>
</svg>

<svg width="41" height="30" fill="none" xmlns="http://www.w3.org/2000/svg"><path d="M31.217 12.9l-3.772-.466a9.684 9.684 0 00-1.055-2.362l2.312-2.805a.417.417 0 00-.042-.58l-2.686-2.492a.5.5 0 00-.624-.038l-3.024 2.145a11.331 11.331 0 00-2.545-.98l-.503-3.499a.465.465 0 00-.471-.383h-3.8a.464.464 0 00-.47.383l-.503 3.5c-.9.226-1.754.558-2.545.979L8.465 4.156a.501.501 0 00-.624.039L5.155 6.687a.417.417 0 00-.042.58l2.313 2.805a9.679 9.679 0 00-1.056 2.361l-3.772.467a.454.454 0 00-.412.437v3.525c0 .22.176.408.412.437l3.771.466a9.678 9.678 0 001.056 2.362l-2.312 2.806a.417.417 0 00.041.579l2.687 2.492c.092.086.213.13.336.13.101 0 .203-.03.288-.091l3.024-2.146c.791.42 1.645.752 2.545.98l.503 3.499c.031.22.233.383.47.383h3.8c.238 0 .44-.163.47-.383l.503-3.499a11.33 11.33 0 002.546-.98l3.023 2.146c.086.061.188.09.289.09a.494.494 0 00.336-.128l2.686-2.493a.417.417 0 00.042-.579l-2.312-2.805a9.682 9.682 0 001.055-2.362l3.772-.467a.454.454 0 00.412-.437v-3.525a.453.453 0 00-.412-.437zm-14.31 6.165c-2.36 0-4.274-1.775-4.274-3.965s1.914-3.966 4.274-3.966c2.361 0 4.274 1.775 4.274 3.966 0 2.19-1.913 3.965-4.274 3.965z" fill="#0278D5" opacity=".3"/><path d="M1.71 20.136l5.428 5.035 8.684-8.057 4.342 4.029L39.703 1" stroke="#0278D5" stroke-width="2" stroke-linecap="round"/></svg>
